X:1
T:The Dirty Lough  "Composed by Tim Farrelly"
M:6/8
L:1/8
Q:80
C:
S:Jig
K:HP
|: e | \
{g}Ae{A}e{g}de{g}A | \
e{g}e{A}e{gef}edB | \
{g}Gd{c}d{g}Bd{e}G |
d{e}d{c}d{gef}edB | \
{g}Ae{A}e{g}de{g}A | \
e{g}e{A}e{gef}edB |
{g}GB{G}Bd{e}d{c}d | \
{gef}edB{gAGAG}A2 :: \
{d}B |
{g}Aa{g}agae | \
a{g}a{g}agae | \
{g}Gd{c}d{g}Bd{e}G |
d{g}Bd{g}GdB | \
{g}Aa{g}agae | \
a{g}a{g}agae |
{g}GB{G}Bd{e}d{c}d | \
{gef}edB{gAGAG}A2 :|
